X: 49
T: ALEC MC. BAIN
%R: hornpipe, strathspey
B: Jean White "100 Popular Hornpipes, Reels, Jigs and Country Dances", Boston 1880 p.22
F: http://www.loc.gov/resource/sm1880.09124.0#seq-1
Z: 2014 John Chambers <jc:trillian.mit.edu>
M: C|
L: 1/8
K: Gm
% - - - - - - - - - - - - - - - - - - - - - - - - - - - - -
A2 |\
(3Bcd G>d B>Gd>G | (3ABc F>c A>Fc>F |\
(3Bcd G>d B>Gd>G | (3ABc D>^F G>AB>A |
(3Bcd G>d B>Gd>G | (3ABc F>c A>Fc>F |\
(3Bcd G>d B>Gd>G | (3ABc D>^F G2 :|
|: A2 |\
B3f (3BBB f>d | c>dc>B A>Bc>A |\
G>gg>a b>ag>^f | (3gab a>^f g2g>a |
(3gab f>d B>df>d | c>dc>B A>Bc>A |\
G>gg>a g>=Bc>e | d>cB>A G2 H:|
% - - - - - - - - - - - - - - - - - - - - - - - - - - - - -

%%sep 1 1 500
%%sep 1 1 500
